src/assets/Imgs/proposal/share-white.svg

<svg fill="none" height="20" viewBox="0 0 20 20" width="20" xmlns="http://www.w3.org/2000/svg" xmlns:xlink="http://www.w3.org/1999/xlink"><clipPath id="a"><path d="m0 0h20v20h-20z"/></clipPath><g clip-path="url(#a)"><path d="m1.4321 11.4251c-.791367 0-1.4321.6377-1.4321 1.4243v5.7228c0 .7854.641175 1.4243 1.4321 1.4243h17.1358c.7914 0 1.4321-.6377 1.4321-1.4243v-5.7228c0-.7854-.6412-1.4243-1.4321-1.4243-.787 0-1.425.6333-1.425 1.4272v3.5749c0 .3933-.3253.7122-.7085.7122h-12.86883c-.39125 0-.70843-.3236-.70843-.7122v-3.5749c0-.7882-.6458-1.4272-1.42504-1.4272zm12.1393-3.51466v2.13796c0 .7904.4641.9954 1.0421.4526l5.2684-4.94728c.156-.16508.1585-.44318.0013-.6108l-5.2411-4.655236c-.5913-.525237-1.0707-.3119572-1.0707.482308v2.141278c-7.33343-.12433-10.71426 3.85091-10.71426 7.85393 0 0 1.09115-2.85476 10.71426-2.85476z" fill="#fff"/></g></svg>

<svg width="20" height="20" viewBox="0 0 20 20" fill="none" xmlns="http://www.w3.org/2000/svg">
<g clip-path="url(#clip0_499_5140)">
<path d="M1.4321 11.4251C0.640733 11.4251 0 12.0628 0 12.8494V18.5722C0 19.3576 0.641175 19.9965 1.4321 19.9965H18.5679C19.3593 19.9965 20 19.3588 20 18.5722V12.8494C20 12.064 19.3588 11.4251 18.5679 11.4251C17.7809 11.4251 17.1429 12.0584 17.1429 12.8523V16.4272C17.1429 16.8205 16.8176 17.1394 16.4344 17.1394H3.56557C3.17432 17.1394 2.85714 16.8158 2.85714 16.4272V12.8523C2.85714 12.0641 2.21134 11.4251 1.4321 11.4251ZM13.5714 7.91044V10.0484C13.5714 10.8388 14.0355 11.0438 14.6135 10.501L19.8819 5.55372C20.0379 5.38864 20.0404 5.11054 19.8832 4.94292L14.6421 0.287684C14.0508 -0.237553 13.5714 -0.0242732 13.5714 0.769992V2.91127C6.23797 2.78694 2.85714 6.76218 2.85714 10.7652C2.85714 10.7652 3.94829 7.91044 13.5714 7.91044Z" fill="white"/>
</g>
<defs>
<clipPath id="clip0_499_5140">
<rect width="20" height="20" fill="white"/>
</clipPath>
</defs>
</svg>
